X: 1
T: Drowsy Maggie
R: reel
M: 4/4
L: 1/8
K: Edor
|:E2BE dEBE|E2BE AFDF|E2BE dEBE|BABc dAFD:|
|:e2ef g2fg|e2ef gedB|e2ef g2fg|afge dBAF:|
